X: 5
T: DRUMDELGIE
T: Miller of Stralloch
S: "Community Dances Manual 6", EFDSS, Jack Hamilton ed., 1981 p.5
R: jig
Z: 2010 John Chambers <jc:trillian.mit.edu>
M: 6/8
L: 1/8
K: D
"A"|: A |\
"D"A>BA AFA | "D"d2e "G"g2f | "A"e2A AGF | "Em"G3 "A7"GFG |\
"D"A>BA AFA | "D"d2e "G"g2f | "A7"e2A ABc | "D"d3 d2 :|
"B"|: e |\
"D"f2f "Bm"def | "Em"g2f "A7"eag | "D"f2d A2F | "Em"G3 "A7"GFG |\
"D"A>BA AFA | "D"d2e "G"g2f | "A7"e2A ABc | "D"d3 d2 :|

%%sep 2 1 500
%%sep 1 1 500

